icon-themes/breeze_svg/cmd/lc_extrusionsurfacefloater.svg

<svg viewBox="0 0 24 24" xmlns="http://www.w3.org/2000/svg"><path d="m6.9980469 4-2.9980469 3v13h14l3-3v-13z" fill="#b3b3b3"/><path d="m6.96875 4-2.96875 2.96875v1.4375 11.59375h1 12 1l3-3v-12-.25-.40625-.34375h-13zm.4375 1h11.90625l-2 2h-.3125-11.59375zm12.59375.75v10.8125l-2 2v-10.8125zm-15 2.25h12v.75 10.25h-12z" fill="#4d4d4d"/></svg>

<svg xmlns="http://www.w3.org/2000/svg" viewBox="0 0 24 24">
 <path 
     style="fill:#b3b3b3" 
     d="M 6.9980469 4 L 4 7 L 4 20 L 18 20 L 21 17 L 21 4 L 6.9980469 4 z "
     />
 <path 
     style="fill:#4d4d4d" 
     d="M 6.96875 4 L 4 6.96875 L 4 8.40625 L 4 20 L 5 20 L 17 20 L 18 20 L 21 17 L 21 5 L 21 4.75 L 21 4.34375 L 21 4 L 8 4 L 6.96875 4 z M 7.40625 5 L 19.3125 5 L 17.3125 7 L 17 7 L 5.40625 7 L 7.40625 5 z M 20 5.75 L 20 16.5625 L 18 18.5625 L 18 7.75 L 20 5.75 z M 5 8 L 17 8 L 17 8.75 L 17 19 L 5 19 L 5 8 z "
     />
 </svg>
